X:37
T:Barn Elms
C:John Young, Dancing Master, 1713
L:1/4
M:3/2
%%MIDI beat 100 95 80
S:Colin Hume's website,  colinhume.com  - chords can also be printed below the stave.
%%MIDI gchord fcHcfc
Q:1/2=92
K:Bb
P:A
|: "Gm"dg- "/"ga "/"ba/g/ | "D7"^f/g/a "/"dc "/"BA | "Gm"BG "/"B/c/d "Eb"ed | "Cm"de/d/ "/"c2 "D7"d2 :|
P:B
|: "Bb"df- "/"fg "F7"f/g/f/e/ | "Bb"dB- "/"Bf "/"bf | "G7"gf- "/"fe/d/ "/"ed | "Cm"cc/d/ "F7"ef "Bb"dB |
"Bb"fb- "/"ba "G7"gd | "A"=ea- "/"ag "D7"^fd | "G7"gf- "/"fe- "Eb"ed | "D7"dc/B/ "/"A2 "Gm"G2 :|

